X:64
T:The Luck Penny
Z:robin.beech@mcgill.ca
S:Padraig O'Neill, Victoria Bar, Glasgow
R:jig
M:6/8
L:1/8
K:G
B2G AGE | DGG FGA | BAG BdB | cAG FGA | B2G AGF |GBd g2g | fed gdB |
cAF G2A :| d2g gfg | a2g fga | bag agf | def g2a |bag agf | g2g fdc |
def gdB |1 cAF GAB:|2 cAF GBc |: dBG GFG | dBG GAB | cA=F FEF |
cA=F FBc | dBG GBd | g3 fdc | def gdB |1 cAF GBc :|2 cAF G2A |]
